X:1
T:Eichendorff-Lieder
T:Der Schreckenberger
T:Eichendorff-Lieder
T:9. Der Schreckenberger
T:Hugo Wolf
T:Joseph von Eichendorff
T:OpenScore (CC0)
T:OpenScore (CC0)
T:OpenScore (CC0)
T:OpenScore (CC0)
T:OpenScore (CC0)
C:Hugo Wolf
Z:Joseph von Eichendorff
Z:OpenScore (CC0)
%%score 1 { ( 2 5 6 ) | ( 3 4 ) }
L:1/8
Q:1/4=120
M:6/8
K:G
V:1 treble nm="Voice"
V:2 treble nm="Piano"
V:5 treble 
V:6 treble 
V:3 bass 
V:4 bass 
V:1
"^Keck und verwegen"!ff! B | e3 ^G A B | c2 E z E _E | D2 d c G A | B3 z2 B | d2 d d2 d | %6
w: Aufs|Wohl- sein mei- ner|Da- me, ei- ne|Wind- fahn' ist ihr Pa-|nier, For-|tu- na ist ihr|
w: A|health to my fair|Dame, Sir! See a|vane her ban- ner dis-|plays, Dame|For- tune is her|
 ^c2 B z2 B | ^d3 ^G ^A ^c | B3 z2[Q:1/4=105]"^etwas langsamer"!p! B | =d2 d d2 d | (d2 _e) e2 _d | %11
w: Na- me, das|La- ger ihr Quar-|tier! Und|wen- det sie sich|wei- * ter, ich|
w: name, Sir, from|camp she sel- dom|strays! Yet,|if she turn and|leave * me, I|
 c2 _c _B2 _A | _E3 z2 E | D2 F (Ac) e | ^d3 d2!p! ^D | E2 F G2 =d | ^c3 z2!f! d | =f2 _B (BA) _A | %18
w: kümm- re mich nicht|drum, da|drau- ssen oh- * ne|Rei- ter, da|geht die Welt so|dumm. Statt|Pul- ver- ~blitz * und|
w: neith- er grieve nor|scold: my|pride it is, * be-|lieve me, to|be a rid- er|bold. Our|mus- kets should * be|
 G2 d z2!p! G | c2 c _d2 d | c3 z"^näselnd"!mf! (_ed) | ^c2 G (GA) G | F2 d z"^natürlich" D D | %23
w: Knat- tern aus|je- dem wü- sten|Haus Ge- *|vat- tern sehn _ und|schnat- tern al- le|
w: rat- tling, where|now the old folks|stand, all *|prat- tling, cack- * ling,|chatt'r- ing: Who could|
!f! G2 G d2[Q:3/8=64] ^c |[Q:1/4=90]"^rit." (d3- d^c/) z/!mp! =c[Q:3/8=55] | %25
w: Lust zum Land hin-|aus. _ _ For-|
w: live in such a|land? _ _ Dame|
[Q:1/4=120]"^a tempo" B2 B (BA) G | ^D3 D2 D | E2 c c2 B | ^A3- A2 z |!<(! d d d ^c2 =f | %30
w: tu- na weint * vor|Är- ger, es|rin- net Perl' auf|Perl': _|,,Wo ist der Schrek- ken-|
w: For- tune wept * and|said naught, but|shed full many a|tear: _|"Where is that Cap- tain|
 =f2!<)!!mf! d z2 z |!<(! d d3/2 d/ e2 d!<)! |!f! A3 z2 z | z6 | z6 | z2 z z2!mp! A | A2 A A2 A | %37
w: ber- ger?|Das war ein and- rer|Kerl!"|||Sie|tut den Arm mir|
w: Dread- naught?|I would that he were|here!"|||Her|arm to me ex-|
 (A2 d) d3 |!<(! B2 B B B!<)!!mf! ^c |!<(! ^d6!<)! |!f! _e3/2 e/ e"^cresc." e2 e | d2 B G2 A | %42
w: rei- * chen,|Fa- ma bläst das Ge-|leit,|so zu dem Tem- pel|stei- gen wir der|
w: tend- * ing;|Glo- ry her- alds our|name;|slow- ly the steps we~~a-|scend that lead to|
!ff! B3 (d3- |"^cresc." d!>!e!>!d !>!c!>!B) A |!fff! G3 z2 z | z6 |[K:G] z6 | z6 | z6 | z6 | z6 | %51
w: Un- sterb-|* * * * * lich-|keit.|||||||
w: im- mort-|* * * * * al|fame.|||||||
 z6 | z6 | z6 | z6 |] %55
w: ||||
w: ||||
V:2
 z | [^G,B,E]3/2(F/4^G/4A/4B/4c/4d/4 [GBe]) z z | [CEA]3/2(B/4c/4d/4e/4f/4^g/4 [cea]) z z | %3
 !///-![cd]3 e3 | [B^db]3/2(^c'/4^d'/4e'/4f'/4^g'/4^a'/4 [bb']) z z | [B,^EB] z z [^EB^e] z z | %6
 [B^eb] z z [b^e'b'] z z | [B^dfb]3 [F,^A,EF]3 | [B,^DB]3/2(^c/4^d/4e/4f/4^g/4^a/4 [db]) z z | %9
!p! !arpeggio![=FB=dg] z z !arpeggio![FBdg] z z | !arpeggio![G_B_dg] z z !arpeggio![GBdg] z z | %11
 !arpeggio![_Ac_e_a] z z !arpeggio![A_cda] z z | !arpeggio![_EG_B_e] z z !arpeggio![EGBe] z z | %13
"_cresc." !arpeggio![CFAd] z z !arpeggio![CFAd] z z | !arpeggio![^CG^d] z z !arpeggio![Gda] z z | %15
!p! !arpeggio![G=ceg]2 z !arpeggio![GBdg]2 z | %16
!<(! !arpeggio![E_B^cg] z z !arpeggio![EBcg] z!<)! z | %17
!f! !arpeggio![_Ad=f_b] z z !arpeggio![Adfb] z z | !arpeggio![=Bd=f=b] z z !arpeggio![Bdfb] z z | %19
!p! !arpeggio![c_egc'] z z !arpeggio![_de_b_d'] z z | %20
 !arpeggio![c_e_ac'] z z !arpeggio![ceac'] z z | %21
!mf!!>(! (6:4:6(^c/d/c/d/c/d/!>)!!p! _e)!mf! (6:4:6(c/!>(!d/c/d/c/d/!>)!!p! e) | %22
!mf! (6:4:6([_bd']/!>(!=e'/[bd']/e'/[bd']/e'/!>)!!p! f')!mf! (6:4:6([bd']/!>(!e'/[bd']/e'/[bd']/e'/!>)!!p! f') | %23
!f! [G,DG]3 [DGd]2 [^C^c] | (d3- d^c=c) |!p!"^a tempo" !arpeggio![B,DB] z z !arpeggio![B,DB] z z | %26
 !arpeggio![B,^DB] z z !arpeggio![B,DB] z z | !arpeggio![CEc] z z !arpeggio![CEc] z z | %28
!<(! !arpeggio![Ef]3!<)!!mf!!>(! !arpeggio![E^Af]3!>)! | %29
!p!"_cresc." !arpeggio![D_Bd=f] z z !arpeggio![=FA^c=f] z z | !arpeggio![=F_Bd=f] z z z [Ff][Gg] | %31
 !arpeggio![^Gd^g] z z !arpeggio![Gdg] z z |!f!!<(! x3 d'3-!<)! |!ff! d'3- d' x2 | %34
 !arpeggio![dfad'] z z!mf!!>(! !arpeggio![F,A,DF] z z | %35
 !arpeggio![F,A,DF] z z !arpeggio![F,A,DF] z!>)! z | %36
!p! !arpeggio![G,^CA] z z !arpeggio![G,CA] z z |"_cresc." [F,DFA] z z !arpeggio![F,DFA] z z | %38
 !arpeggio![B,^DFB] z z !arpeggio![^G,E^GB] z z | %39
!mf! !arpeggio![^DFB^d]!<(! z z !arpeggio![DFBd] z z!<)! | %40
!f! !arpeggio![_E_Ac_e] z z"_cresc." [^CG_Be] z z | !arpeggio![DG=Bd] z z !arpeggio![G^cg] z z | %42
!ff! !arpeggio![GBdg] z z !arpeggio![^GBd^g] z z | %43
!<(! !arpeggio![Acea] z z !arpeggio![cfad'] z!<)! z |!fff!"^pompös" !^![B,DG]3 !^![DGB]2 !^![FAd] | %45
 !^![FAd]2 !^![CEA] !^![EGc]3 |[K:G] !^![GBe]2 !^![DFB] !^![FAd]3 | !^![Acf]2 !^![EGc] !^![Gce]3 | %48
!fff! !///-![G_B_e]3 g3 | !///-![G_B_e]3 g3 | !///-![GB_e]3 g3 | %51
 !///-![G_B_e]3/2 g3/2 [GBeg][Gg][Aa] |!fff! !///-![=Bdg]3 b3 | !///-![Bdg]3 b3 | %54
 [Bdgb] z z z2 z |] %55
V:3
 z |!ff! [E,,B,,E,]3/2(F,/4^G,/4A,/4B,/4C/4D/4 E) z z | %2
 [A,,E,A,]3/2[K:treble] (B,/4C/4D/4E/4F/4^G/4 A) z z | !///-![DF]3 =G3 | [B,^DG]3 [B^dg] z z | %5
[K:bass] [G,,=D,G,] z (G,/4A,/4B,/4C/4 D) z[K:treble] (D/4E/4=F/4^F/4 | %6
 G) z (d/4e/4=f/4^f/4 g) z z |[K:bass] [F,B,^DF]3 [F,,^C,E,]3 | %8
 [B,,,F,,B,,]3[K:treble] [B,FB] z z |[K:bass] [D,B,]2 G,, [D,B,]2 G,, | [_E,_B,]2 G,, [E,B,]2 G,, | %11
 [_E,C]2 _A,, [E,_C]2 A,, | [_B,,G,]2 _E,, [B,,G,]2 E,, | [A,,F,]2 D,, [A,,F,]2 D,, | %14
 [^D,A,]2 A,, [D,A,]2 A,, | [E,=C]2 A,, [G,D]2 B,, | [G,^C]2 _B,, [G,C]2 B,, | %17
 [=F,_B,D]2 _B,, [F,B,D]2 B,, |[K:treble] [G,D]2{/^F} G [G,D]2{/F} G | [G,_E]2{/F} G [G,E]2{/F} G | %20
 [_A,_E]2{/G} _A [G,E]2{/F} G | (6:4:6(_B/A/B/A/B/A/ G) (6:4:6(B/A/B/A/B/A/ G) | %22
 (6:4:6(_B/A/B/A/B/A/ F) (6:4:6(B/A/B/A/B/A/ F) |[K:bass] [_E,,G,,_E,]3 [_E,G,_E]3 |"^rit." A,6 | %25
 [G,,D,G,]2 G,, [G,,D,G,]2 G,, | [G,,^D,G,]2 G,, [G,,D,G,]2 G,, | [G,,E,G,]2 G,, [G,,E,G,]2 G,, | %28
 [^C,^A,]2 F,, [C,A,]2 F,, | [=F,_B,]2 =F,, [F,A,]2 F,, | [_B,D]2 _B,, [B,D]2 B,, | %31
 [_B,=F]2 _B,, [B,F]2 B,, | [A,DE]2 A,, [A,D^F]2 A,, | [A,EG]2 A,, [A,EGA]2 A,, | %34
 [D,A,F]2 D,, [A,,D,]2 D,, | [A,,D,]2 D,, [A,,D,]2 D,, | [_E,,A,,]2 [_E,A,] [E,,A,,]2 [E,A,] | %37
 !arpeggio![D,,=C,]2 [D,A,C] [D,,C,]2 [D,A,C] | [B,,,F,,]2 [B,,F,B,] [B,,,E,,]2 [B,,E,B,] | %39
 [B,,,F,,B,,]2 [B,,F,B,] [B,,,F,,B,,]2 [B,,F,B,] | %40
 [C,,_A,,C,]2 [C,_A,C] !arpeggio![_E,,_B,,_E,]2 [_E,_B,_E] | %41
 [G,,D,G,]2 [G,B,D] [=E,,A,,=E,]2 [E,A,^C] | [D,,D,]2 [D,G,B,] [D,,D,]2 [D,^G,B,] | %43
 [D,,A,,D,]2 [D,A,C] [D,,A,,D,]2 [A,CF] | %44
 [G,,,D,,G,,] [G,,D,G,][G,,D,G,] [G,,D,G,][G,,D,G,][G,,D,G,] | %45
 [G,,D,G,][G,,D,G,][G,,D,G,] [G,,D,G,][G,,D,G,][G,,D,G,] | %46
[K:G] [G,,D,G,][G,,D,G,][G,,D,G,] [G,,D,G,][G,,D,G,][G,,D,G,] | %47
 [G,,D,G,][G,,D,G,][G,,D,G,] [G,,D,G,][G,,D,G,][G,,D,G,] | %48
 !^![G,,_B,,_E,G,]3 !^![_B,,_B,]2 !^![_E,_E] | !^![_E,_E]2 !^![G,,G,] !^![_B,,_B,]3 | %50
 [_E,,_E,][G,,G,][_B,,,_B,,] [E,,E,][G,,,G,,][B,,,B,,] | %51
 [_E,,_E,][G,,G,][_B,,_B,] [_E,_E][B,,B,][A,,A,] | !///-![G,,D,]3 G,3 | !///-![G,,D,]3 G,3 | %54
 [G,,D,G,] z z z2 z |] %55
V:4
 x | x6 | x3/2[K:treble] x9/2 | x6 | x6 |[K:bass] x5[K:treble] x | x6 |[K:bass] x6 | %8
 x3[K:treble] x3 |[K:bass] x6 | x6 | x6 | x6 | x6 | x6 | x6 | x6 | x6 |[K:treble] x6 | x6 | x6 | %21
 _E3 E3 | D3 D3 |[K:bass] x6 | (D,2 _E, =E,^E,F,) | x6 | x6 | x6 | x6 | x6 | x6 | x6 | x6 | x6 | %34
 x6 | x6 | x6 | x6 | x6 | x6 | x6 | x6 | x6 | x6 | x6 | x6 |[K:G] x6 | x6 | x6 | x6 | x6 | x6 | %52
 x6 | x6 | x6 |] %55
V:5
 x | x6 | x6 | x6 | x6 | x6 | x6 | x6 | x6 | x6 | x6 | x6 | x6 | x6 | x6 | x6 | x6 | x6 | x6 | x6 | %20
 x6 | x6 | x6 | x6 | (F"_dim." G2 ^G A2) | x6 | x6 | x6 | (^A2 d) d2 ^c | x6 | x6 | x6 | %32
 [Ada] z z [d^fa] z z | [dgb]3- [dgb] [Bb][^c^c'] | x6 | x6 | x6 | x6 | x6 | x6 | x6 | x6 | x6 | %43
 x6 | x6 | x6 |[K:G] x6 | x6 | x6 | x6 | x6 | x6 | x6 | x6 | x6 |] %55
V:6
 x | x6 | x6 | x6 | x6 | x6 | x6 | x6 | x6 | x6 | x6 | x6 | x6 | x6 | x6 | x6 | x6 | x6 | x6 | x6 | %20
 x6 | x6 | x6 | x6 | D6 | x6 | x6 | x6 | x6 | x6 | x6 | x6 | x6 | x6 | x6 | x6 | x6 | x6 | x6 | %39
 x6 | x6 | x6 | x6 | x6 | x6 | x6 |[K:G] x6 | x6 | x6 | x6 | x6 | x6 | x6 | x6 | x6 |] %55

